X:24
T:The First of May / The Fairy Hornpipe
R:hornpipe
D:Paddy O'Brien: nOg Learning CD, track 28
D:Chulrua: Down the Back Lane
D:Warming Up: Martin Mulhaire, Seamus Connolly, Jack Coen
Z:Julie Ross
M:C|
K:Ador
"The First of May"
D|:EAAB cBAG|Adde fefg|afge fded|^cAAB GFED|
EAAB c2AG|Adde fefg|afge fded|1BcA2 A3D:|2 BcA2 A2(3efg||
a2af geag|fefg e2fg|afge fded|^cAAB Gefg|
a2af geag|fefg e2fg|afge fded|BcA2 A2(3efg||
a2af gbag|fefg e2fg|afge fded|^cAAB GFED|
EAAB cBAG|Adde fefg|afge fded|BcA2 A3D||
"The Fairy Hornpipe"
K:G
D2 | GFGA BGcB | AGAB G2Bc | d~g3 edcB | cedB A2Bc |
dggf g2fe | dedc B2AG | ABcA dcAF |1 G2GF G3D :|2 G2GF G2Bc |
|:dggf g2fe |dedc B2AG | ABcA edcB | Ad^ce d2B=c |
dggf g2fe |dedc B2AG | ABcA dcAF |1 G2GF G2Bc :|2 G2GF G2D2 ||
